SVG_Azure_All/Genomics Account.svg

<?xml version="1.0" encoding="UTF-8" standalone="no"?>
<!-- Generated by Microsoft Visio, SVG Export Genomics Account.svg Page-1 -->

<svg
   xmlns:dc="http://purl.org/dc/elements/1.1/"
   xmlns:cc="http://creativecommons.org/ns#"
   xmlns:rdf="http://www.w3.org/1999/02/22-rdf-syntax-ns#"
   xmlns:svg="http://www.w3.org/2000/svg"
   xmlns="http://www.w3.org/2000/svg"
   xmlns:sodipodi="http://sodipodi.sourceforge.net/DTD/sodipodi-0.dtd"
   xmlns:inkscape="http://www.inkscape.org/namespaces/inkscape"
   width="0.39462373in"
   height="0.79017019in"
   viewBox="0 0 28.412933 56.892163"
   xml:space="preserve"
   class="st3"
   version="1.1"
   id="svg24"
   sodipodi:docname="Genomics Account.svg"
   style="font-size:12px;overflow:visible;color-interpolation-filters:sRGB;fill:none;fill-rule:evenodd;stroke-linecap:square;stroke-miterlimit:3"
   inkscape:version="0.92.5 (2060ec1f9f, 2020-04-08)"><metadata
   id="metadata30"><rdf:RDF><cc:Work
       rdf:about=""><dc:format>image/svg+xml</dc:format><dc:type
         rdf:resource="http://purl.org/dc/dcmitype/StillImage" /></cc:Work></rdf:RDF></metadata><defs
   id="defs28" /><sodipodi:namedview
   pagecolor="#ffffff"
   bordercolor="#666666"
   borderopacity="1"
   objecttolerance="10"
   gridtolerance="10"
   guidetolerance="10"
   inkscape:pageopacity="0"
   inkscape:pageshadow="2"
   inkscape:window-width="640"
   inkscape:window-height="480"
   id="namedview26"
   showgrid="false"
   inkscape:zoom="1.7537226"
   inkscape:cx="18.946466"
   inkscape:cy="22.071909"
   inkscape:window-x="0"
   inkscape:window-y="0"
   inkscape:window-maximized="0"
   inkscape:current-layer="svg24" />
	<style
   type="text/css"
   id="style2">
	<![CDATA[
		.st1 {fill:#ff8c00;stroke:none;stroke-linecap:butt;stroke-width:10.2}
		.st2 {fill:#59b4d9;stroke:none;stroke-linecap:butt;stroke-width:10.2}
		.st3 {fill:none;fill-rule:evenodd;font-size:12px;overflow:visible;stroke-linecap:square;stroke-miterlimit:3}
	]]>
	</style>

	<g
   id="g22"
   transform="translate(-10.193588,-10.125768)">
		<title
   id="title4">Page-1</title>
		<g
   id="group4335-1"
   transform="translate(10.2294,-34.0157)">
			<title
   id="title6">Genomics Account</title>
			<g
   id="group4336-2">
				<title
   id="title8"> Microsoft Genomics icon</title>
				<g
   id="shape4337-3"
   transform="translate(0.292719)">
					<title
   id="title10">Sheet.4337</title>
					<path
   d="M 10.68,80.74 C 10.45,80.6 10.27,80.5 10.11,80.37 8.79,79.3 7.41,78.31 6.19,77.13 a 6.39916,6.59608 0 0 1 -1.15,-7.45 11.7246,12.0854 0 0 1 3.05,-3.41 48.0299,49.508 0 0 1 8.61,-5.37 28.7444,29.629 -180 0 0 5.78,-3.59 15.4042,15.8782 -180 0 0 5.42,-9.19 11.1946,11.5391 -180 0 0 0.15,-1.17 2.32622,2.3978 -180 1 0 -4.61,-0.61 c -0.65,4.11 -3.04,6.92 -6.38,8.95 -1.6,0.97 -3.29,1.76 -4.92,2.66 A 37.3744,38.5246 -180 0 0 3.88,63.76 C 2.31,65.3 0.83,66.92 0.22,69.15 A 10.7279,11.0581 -180 0 0 3,80.62 c 0.84,0.88 1.79,1.66 2.7,2.46 a 0.689521,0.71074 -180 0 0 0.589577,0.147441 C 7.74,82.44 9.17,81.61 10.68,80.74 Z m 6.31,8.63 c 0.5,0.33 0.97,0.63 1.43,0.93 a 9.71289,10.0118 0 0 1 4.79,7.34 c 0.06,0.4 0.08,0.82 0.15,1.22 a 2.30604,2.37701 -180 0 0 2.51,2.07 2.25836,2.32786 -180 0 0 2.08,-2.4 13.2641,13.6723 -180 0 0 -3.17,-8.79 31.5832,32.5551 -180 0 0 -2.7,-2.63 0.673933,0.694673 -180 0 0 -0.58866,-0.137044 C 20.01,87.74 18.54,88.54 16.99,89.37 Z"
   class="st1"
   id="path12"
   inkscape:connector-curvature="0"
   style="fill:#ff8c00;stroke:none;stroke-width:10.19999981;stroke-linecap:butt" />
				</g>
				<g
   id="shape4338-5"
   transform="translate(0,-0.00327027)">
					<title
   id="title15">Sheet.4338</title>
					<path
   d="m 5.25,49.3 a 9.19667,9.47969 -180 0 0 1.59,3.06 h 10.03 a 17.5278,18.0672 0 0 1 -1.68,1.15 c -0.32,0.2 -0.65,0.38 -0.98,0.57 H 8.54 a 12.4343,12.817 -180 0 0 1.09,0.79 c 0.46,0.3 0.93,0.6 1.43,0.93 -1.56,0.83 -3.02,1.63 -4.5,2.4 A 0.67485,0.695618 0 0 1 5.97134,58.062956 31.5227,32.4927 0 0 1 3.27,55.43 13.2641,13.6723 0 0 1 0.1,46.64 2.25836,2.32786 0 0 1 2.18,44.24 2.30604,2.37701 0 0 1 4.69,46.3 c 0.07,0.41 0.1,0.83 0.15,1.23 0,0.02 0,0.03 0.01,0.05 h 15.82 v 0.06 a 10.9755,11.3132 0 0 1 -0.92,1.66 z m -5.1,47.75 a 15.4042,15.8782 0 0 1 5.43,-9.2 28.738,29.6224 0 0 1 5.77,-3.58 48.0537,49.5325 -180 0 0 8.61,-5.37 c 0.3,-0.26 0.59,-0.51 0.88,-0.77 H 10.91 A 20.6911,21.3279 0 0 1 9.88,77.21 4.95135,5.10372 0 0 1 9.22,76.41 h 13.2 a 7.06025,7.27752 -180 0 0 0.59,-0.92 5.51892,5.68876 -180 0 0 0.6,-2.18 H 8.13 A 6.66048,6.86545 0 0 1 8.16,71.59 H 23.57 A 6.23503,6.42691 -180 0 0 22.32,68.58 H 9.52 a 13.3384,13.7489 0 0 1 1.67,-1.72 h 9.31 c -0.85,-0.69 -1.71,-1.37 -2.56,-2.06 -0.16,-0.13 -0.34,-0.23 -0.57,-0.38 1.51,-0.86 2.94,-1.69 4.39,-2.49 a 0.689521,0.71074 0 0 1 0.589577,0.146496 C 23.26,62.88 24.2,63.66 25.04,64.55 a 10.7279,11.0581 0 0 1 2.8,11.46 c -0.61,2.24 -2.1,3.86 -3.67,5.39 a 37.3781,38.5284 0 0 1 -8.25,5.81 c -1.63,0.9 -3.33,1.69 -4.92,2.66 a 17.1225,17.6494 -180 0 0 -2.01,1.44 h 6.7 l 0.11,0.07 a 11.6072,11.9644 0 0 1 2.03,1.65 H 7.25 a 11.1084,11.4503 -180 0 0 -1.88,3.09 h 14.51 a 9.74315,10.043 0 0 1 0.54,1.72 H 4.83 C 4.75,98.16 4.67,98.48 4.61,98.82 A 2.32622,2.3978 0 1 1 0,98.22 11.2075,11.5524 0 0 1 0.15,97.05 Z"
   class="st2"
   id="path17"
   inkscape:connector-curvature="0"
   style="fill:#59b4d9;stroke:none;stroke-width:10.19999981;stroke-linecap:butt" />
				</g>
			</g>
		</g>
	</g>
</svg>

<?xml version="1.0" encoding="UTF-8" standalone="no"?>
<!DOCTYPE svg PUBLIC "-//W3C//DTD SVG 1.1//EN" "http://www.w3.org/Graphics/SVG/1.1/DTD/svg11.dtd">
<!-- Generated by Microsoft Visio, SVG Export Genomics Account.svg Page-1 -->
<svg xmlns="http://www.w3.org/2000/svg" xmlns:xlink="http://www.w3.org/1999/xlink" xmlns:ev="http://www.w3.org/2001/xml-events"
		width="0.677873in" height="1.40178in" viewBox="0 0 48.8069 100.928" xml:space="preserve" color-interpolation-filters="sRGB"
		class="st3">
	<style type="text/css">
	<![CDATA[
		.st1 {fill:#ff8c00;stroke:none;stroke-linecap:butt;stroke-width:10.2}
		.st2 {fill:#59b4d9;stroke:none;stroke-linecap:butt;stroke-width:10.2}
		.st3 {fill:none;fill-rule:evenodd;font-size:12px;overflow:visible;stroke-linecap:square;stroke-miterlimit:3}
	]]>
	</style>

	<g>
		<title>Page-1</title>
		<g id="group4238-1" transform="translate(10.2294,-34.0157)">
			<title>Genomics Account</title>
			<g id="group4239-2">
				<title> Microsoft Genomics icon</title>
				<g id="shape4240-3" transform="translate(0.292719,0)">
					<title>Sheet.4240</title>
					<path d="M10.68 80.74 C10.45 80.6 10.27 80.5 10.11 80.37 C8.79 79.3 7.41 78.31 6.19 77.13 A6.39916 6.59608 0
								 0 1 5.04 69.68 A11.7246 12.0854 0 0 1 8.09 66.27 A48.0299 49.508 0 0 1 16.7 60.9 A28.7444 29.629
								 -180 0 0 22.48 57.31 A15.4042 15.8782 -180 0 0 27.9 48.12 A11.1946 11.5391 -180 0 0 28.05 46.95
								 A2.32622 2.3978 -180 1 0 23.44 46.34 C22.79 50.45 20.4 53.26 17.06 55.29 C15.46 56.26 13.77 57.05
								 12.14 57.95 A37.3744 38.5246 -180 0 0 3.88 63.76 C2.31 65.3 0.83 66.92 0.22 69.15 A10.7279 11.0581
								 -180 0 0 3 80.62 C3.84 81.5 4.79 82.28 5.7 83.08 a0.689521 0.71074 -180 0 0 0.589577 0.147441 C7.74
								 82.44 9.17 81.61 10.68 80.74 ZM16.99 89.37 C17.49 89.7 17.96 90 18.42 90.3 A9.71289 10.0118 0 0
								 1 23.21 97.64 C23.27 98.04 23.29 98.46 23.36 98.86 A2.30604 2.37701 -180 0 0 25.87 100.93 A2.25836
								 2.32786 -180 0 0 27.95 98.53 A13.2641 13.6723 -180 0 0 24.78 89.74 A31.5832 32.5551 -180 0 0 22.08
								 87.11 a0.673933 0.694673 -180 0 0 -0.58866 -0.137044 C20.01 87.74 18.54 88.54 16.99 89.37 Z"
							class="st1"/>
				</g>
				<g id="shape4241-5" transform="translate(0,-0.00327027)">
					<title>Sheet.4241</title>
					<path d="M5.25 49.3 A9.19667 9.47969 -180 0 0 6.84 52.36 L16.87 52.36 A17.5278 18.0672 0 0 1 15.19 53.51 C14.87
								 53.71 14.54 53.89 14.21 54.08 L8.54 54.08 A12.4343 12.817 -180 0 0 9.63 54.87 C10.09 55.17 10.56
								 55.47 11.06 55.8 C9.5 56.63 8.04 57.43 6.56 58.2 a0.67485 0.695618 0 0 1 -0.58866 -0.137044 A31.5227
								 32.4927 0 0 1 3.27 55.43 A13.2641 13.6723 0 0 1 0.1 46.64 A2.25836 2.32786 0 0 1 2.18 44.24 A2.30604
								 2.37701 0 0 1 4.69 46.3 C4.76 46.71 4.79 47.13 4.84 47.53 C4.84 47.55 4.84 47.56 4.85 47.58 L20.67
								 47.58 L20.67 47.64 A10.9755 11.3132 0 0 1 19.75 49.3 L5.25 49.3 ZM0.15 97.05 A15.4042 15.8782 0
								 0 1 5.58 87.85 A28.738 29.6224 0 0 1 11.35 84.27 A48.0537 49.5325 -180 0 0 19.96 78.9 C20.26 78.64
								 20.55 78.39 20.84 78.13 L10.91 78.13 A20.6911 21.3279 0 0 1 9.88 77.21 A4.95135 5.10372 0 0 1 9.22
								 76.41 L22.42 76.41 A7.06025 7.27752 -180 0 0 23.01 75.49 A5.51892 5.68876 -180 0 0 23.61 73.31 L8.13
								 73.31 A6.66048 6.86545 0 0 1 8.16 71.59 L23.57 71.59 A6.23503 6.42691 -180 0 0 22.32 68.58 L9.52
								 68.58 A13.3384 13.7489 0 0 1 11.19 66.86 L20.5 66.86 C19.65 66.17 18.79 65.49 17.94 64.8 C17.78
								 64.67 17.6 64.57 17.37 64.42 C18.88 63.56 20.31 62.73 21.76 61.93 a0.689521 0.71074 0 0 1 0.589577
								 0.146496 C23.26 62.88 24.2 63.66 25.04 64.55 A10.7279 11.0581 0 0 1 27.84 76.01 C27.23 78.25 25.74
								 79.87 24.17 81.4 A37.3781 38.5284 0 0 1 15.92 87.21 C14.29 88.11 12.59 88.9 11 89.87 A17.1225 17.6494
								 -180 0 0 8.99 91.31 L15.69 91.31 L15.8 91.38 A11.6072 11.9644 0 0 1 17.83 93.03 L7.25 93.03 A11.1084
								 11.4503 -180 0 0 5.37 96.12 L19.88 96.12 A9.74315 10.043 0 0 1 20.42 97.84 L4.83 97.84 C4.75 98.16
								 4.67 98.48 4.61 98.82 A2.32622 2.3978 0 1 1 0 98.22 A11.2075 11.5524 0 0 1 0.15 97.05 Z"
							class="st2"/>
				</g>
			</g>
		</g>
	</g>
</svg>
